X: 39134
T: Sweet Molly
R: strathspey
M: 4/4
K: Edorian
B<e e>f e2 d>B|d>e f>d e>B d>A|B<e e>f e2 d>B|A>B d>F E2 E2:|
E<F F>E D>E F>A|A<B B>A B>d e>f|d>B d>A B<e e>f|1 d>B d>F E2 E2:|2 d>B d>F E4||

